www/assets/icons/crop_square.svg

<svg xmlns="http://www.w3.org/2000/svg" width="24" height="24" viewBox="0 0 24 24" fill='currentColor'><path d="M18 4H6c-1.1 0-2 .9-2 2v12c0 1.1.9 2 2 2h12c1.1 0 2-.9 2-2V6c0-1.1-.9-2-2-2m0 14H6V6h12z"/></svg>

<svg width="24" height="24" viewBox="0 0 24 24" xmlns="http://www.w3.org/2000/svg" fill='currentColor'><path d="M18 4H6C4.9 4 4 4.9 4 6V18C4 19.1 4.9 20 6 20H18C19.1 20 20 19.1 20 18V6C20 4.9 19.1 4 18 4ZM18 18H6V6H18V18Z"/></svg>
